!!!COM: Beethoven, Ludwig van
!!!CDT: 1770///-1827///
!!!OTL: Piano Sonata no. 16 in G major
!!!OPS: 31
!!!ONM: 1
!!!OMV: 2
!!!OMD: Adagio grazioso
**kern	**kern	**dynam
*staff2	*staff1	*staff1/2
*clefF4	*clefG2	*clefG2
*k[]	*k[]	*k[]
*C:	*C:	*C:
*M9/8	*M9/8	*M9/8
*MM63	*MM63	*MM63
=1-	=1-	=1-
*^	*	*
8E`/L	4.C\	2.cc\	p
8G`/	.	.	.
8c`/J	.	.	.
8E`/L	4r	.	.
8G`/	.	.	.
8c`/J	8r	.	.
.	.	bq/LL	.
.	.	ccq/JJ	.
8E`/L	4r	[4ee\	.
8G`/	.	.	.
8c`/J	8r	16.ee\LL]	.
.	.	32cc\JJk	.
=2	=2	=2	=2
8E`/L	4C\	[4.g/	.
8G`/	.	.	.
8c`/J	8r	.	.
8E`/L	4r	4g/]	.
8G`/	.	.	.
8c`/J	8r	(16f#'/LL	.
.	.	16g'/JJ	.
8E`/L	4r	16g#'/LL	.
.	.	16a'/	.
8G`/	.	16b-'/	.
.	.	16bn'/	.
8c`/J	8r	16cc'/	.
.	.	16cc#'/JJ)	.
=3	=3	=3	=3
8F`/L	4.BB\	2.dd\	.
8G`/	.	.	.
8d/J	.	.	.
8F`/L	4r	.	.
8G/	.	.	.
8d/J	8r	.	.
.	.	(ccq/LL	.
.	.	ddq/JJ)	.
8F/L	4r	[4ff\	.
8G`/J	.	.	.
8d/	8r	16.ff\LL]	.
.	.	32dd\JJk	.
=4	=4	=4	=4
8F`/L	4BB\	[4.g/	.
8G`/	.	.	.
8d`/J	8r	.	.
8F`/L	4r	4g/]	.
8G`/	.	.	.
8d`/J	8r	(16g'/LL	.
.	.	16a'/JJ	.
8F`/L	4GG\	16b-'/LL	.
.	.	16bn'/	.
8G`/	.	16cc'/	.
.	.	16cc#'/	.
8B`/J	8r	16dd'/	.
.	.	16dd#'/JJ)	.
*v	*v	*	*
=5	=5	=5
.	(eq/	.
8C`\ 8E`\L	4.ee\)	<
8G`\	.	.
8c`\J	.	.
.	(fq/	.
8AA`\L	4.ff\)	.
8A`\	.	.
8c`\J	.	.
.	gq/	.
8EE`\L	4.gg\	.
8E`\ 8G`\	.	.
8G`\ 8c`\J	.	.
=6	=6	=6
8FF`\L	8gg#'\	.
8F`\ 8A`\	[4aa\	.
8A`\ 8c`\J	.	.
8FF`\L	8aa\]	.
8F`\ 8A`\	[4aa\	.
8A`\ 8c#`\J	.	.
8FF`\L	8aa\L]	>
.	ggnq/	.
8F`\ 8A`\	(16ff\L	.
.	16ee\	.
8A`\ 8d`\J	16ff\	.
.	16dd\JJ)	.
=7	=7	=7
8GG\L	8cc\L	p
.	ddq/	.
8G`\ 8c`\	(16.cc\L	.
.	32b\k	.
8c\ 8e\J	16.cc\	.
.	32ee\JJk)	.
8GG\L	[4.g/	.
8G\ 8c\	.	.
8c`\ 8e`\J	.	.
8GG\L	(32g/LLL]	.
.	32a/	.
.	32g/	.
.	32f#/JJJ	.
8G`\ 8d`\	48g/LLL	.
.	48a/	.
.	48b/	.
.	48cc/	.
.	48dd/)	.
.	48ee/JJJ	.
8d`\ 8fn`\J	16ffn\LL	.
.	32r	.
.	32b\JJk	.
=8	=8	=8
8C`\L	4.f/ (4.dd/	.
8G`\	.	.
8B`\J	.	.
8C`\ 8c`\L	8e/ 8cc/L)	.
(8G\	(8g/	.
8F#\J	8f#/J	.
8Fn\L	8fn/L	.
8E\	8e/	.
8D\J)	8d/J)	.
=9	=9	=9
(CCq/	.	.
2.C/)	8c/L	.
.	8G/ 8c/ 8e/	.
.	8G/ 8c/ 8e/J	.
.	8G/ 8c/ 8e/L	.
.	8G/ 8c/ 8e/	.
.	8G/ 8c/ 8e/J	.
(BBq/LL	.	.
Cq/JJ	.	.
[4E\)	8G/ 8c/ 8e/L	.
.	8G/ 8c/ 8e/	.
16.E\LL]	8G/ 8c/ 8e/J	.
32C\JJk	.	.
=10	=10	=10
*^	*	*
8GG/	8r	32r	.
.	.	32c/LLL	.
.	.	32e/	.
.	.	32d/JJJ	.
(8G/L	4G\	32f/LLL	.
.	.	32e/	.
.	.	32g/	.
.	.	32f/JJJ	.
8c/ 8e/J	.	32a/LLL	.
.	.	32g/	.
.	.	32b/	.
.	.	32a/JJJ	.
8c/ 8e/L	[4.G\)	32cc\LLL	.
.	.	32b\	.
.	.	32dd\	.
.	.	32cc\JJJ	.
8c/ 8e/	.	(48ee\LLL	.
.	.	48dd\	.
.	.	48ff\	.
.	.	48ee\	.
.	.	48gg\	.
.	.	48ff\JJJ)	.
8c/ 8e/J	.	(48aa\LLL	.
.	.	48gg\	.
.	.	48bb\	.
.	.	48aa\	.
.	.	48ccc\	.
.	.	48bb\JJJ)	.
8c/ 8e/L	4.G\]	(48ddd\LLL	.
.	.	48ccc\	.
.	.	48eee\	.
.	.	48ddd\	.
.	.	48ccc\	.
.	.	48bb\JJJ)	.
8c/ 8e/	.	(48aa\LLL	.
.	.	48gg\	.
.	.	48ff\	.
.	.	48ee\	.
.	.	48dd\	.
.	.	48cc\JJJ)	.
8c/ 8e/J	.	(56b/LLL	.
.	.	56a/	.
.	.	56g/	.
.	.	56f/	.
.	.	56e/	.
.	.	56d/	.
.	.	56c/JJJ)	.
*v	*v	*	*
=11	=11	=11
(8GGq/	.	.
2.D\)	8B/L	.
.	8G/ 8B/ 8f/	.
.	8G/ 8B/ 8f/J	.
.	8G/ 8B/ 8f/L	.
.	8G/ 8B/ 8f/	.
.	8G/ 8B/ 8f/J	.
(16Cq/LL	.	.
16Dq/JJ	.	.
[4F\)	8G/ 8B/ 8d/ 8f/L	.
.	8G/ 8B/ 8d/ 8f/	.
16.F\LL]	8G/ 8B/ 8d/ 8f/J	.
32D\JJk	.	.
=12	=12	=12
*^	*	*
8GG/	8r	32r	.
.	.	32B/LLL	.
.	.	32d/	.
.	.	32c/JJJ	.
(8G/L	4G\	32e/LLL	.
.	.	32d/	.
.	.	32f/	.
.	.	32e/JJJ	.
8d/J	.	32g/LLL	.
.	.	32f/	.
.	.	32a/	.
.	.	32g/JJJ	.
8d/ 8f/L	[4.G\)	32b/LLL	.
.	.	32a/	.
.	.	32cc/	.
.	.	32b/JJJ	.
8d/ 8f/	.	(48dd\LLL	.
.	.	48cc\	.
.	.	48ee\	.
.	.	48dd\	.
.	.	48ff\	.
.	.	48ee\JJJ	.
8d/ 8f/J	.	(48gg\LLL)	.
.	.	48ff\	.
.	.	48aa\	.
.	.	48gg\	.
.	.	48bb\	.
.	.	48aa\JJJ	.
8d/ 8f/L	4.G\]	(48ccc\LLL)	.
.	.	48bb\	.
.	.	48ddd\	.
.	.	48ccc\	.
.	.	48eee\	.
.	.	48ddd\JJJ	.
8d/ 8f/	.	64fff\LLLL)	.
.	.	64eee\	.
.	.	64ddd\	.
.	.	64ccc\	.
.	.	64bb\	.
.	.	64aa\	.
.	.	64gg\	.
.	.	64bb\JJJJ	.
8d/ 8f/J	.	64ddd\LLLL	.
.	.	64ccc\	.
.	.	64bb\	.
.	.	64aa\	.
.	.	64gg\	.
.	.	64ff\	.
.	.	64ee\	.
.	.	64dd\JJJJ	.
*v	*v	*	*
=13	=13	=13
8C`\L	(8dd#\	.
8G\ 8c\	4ee\)	.
8c`\ 8e`\J	.	.
.	8eeq/	.
8AA`\L	[4.ccc\	.
8A`\ 8c`\	.	.
8c`\ 8e`\J	.	.
8GG`\L	16ccc\LL]	.
.	16bb'\	.
8G`\ 8c`\	16aa'\	.
.	16gg'\	.
8c`\ 8e`\J	16ff#'\	.
.	16ee'\JJ	.
=14	=14	=14
8FF#`\L	(8ee\	.
8A`\ 8c`\	[4ddn\)	.
8c`\ 8d`\J	.	.
8FF#`\L	16dd\LL]	.
.	16cc#'\	.
8A`\ 8c`\	16dd'\	.
.	16cc#'\	.
8c`\ 8d`\J	16dd'\	.
.	16cc#'\JJ	.
8GG`\L	16dd'\LL	.
.	16cc#'\	.
8G\ 8B\	16dd'\	.
.	16ee'\	.
8B`\ 8d`\J	16ff#'\	.
.	16gg'\JJ	.
=15	=15	=15
8CC`\L	16a'/LL	.
.	16g#'/	.
8C\ 8E\	16a'/	.
.	16b'/JJ	.
8E`\ 8A`\J	24cc'\LL	.
.	24dd'\	.
.	24ee'\JJ	.
8DD`\L	8ee^\	.
8D`\ 8G`\	[4d/	.
8G`\ 8B`\J	.	.
8DD`\L	(16d/LL]	.
.	32e/L	.
.	32d/J	.
8D`\ 8A`\	16c#/	.
.	16d/)	.
8A`\ 8c`\J	16e'/	.
.	16f#'/JJ	.
=16	=16	=16
.	8f#q/	.
8GG`\L	(4.a/	.
8G`\ 8c`\	.	.
8c`\ 8d`\J	.	.
8G`\ 8B`\	8g/L)	.
8r	(8g'/	pp
8r	8g'/J)	.
4r	(8g/L	.
.	8f#/	.
8r	8g/J)	.
*clefG2	*	*
=17	=17	=17
*	*^	*
4r	2.r	8g/L	<
.	.	8f#/	.
8e-/	.	8g/J	.
(8e-/L	.	(8g/L	.
8d/	.	8f#/	.
8e-/J)	.	8g/J)	.
(8e-/L	(8g\L	4r	.
8d/	8f#\	.	.
8e-/J)	8g\J)	8b-/ 8cc#/	.
=18	=18	=18	=18
*^	*	*	*
(8en/L	2.A\	4.b-/ [4.cc#/	(8g\L	>
8d#/	.	.	8f#\	.
8e/J)	.	.	8g\J)	.
(8e/L	.	4b-/ 4cc#/]	(8g\L	.
8d#/	.	.	8f#\	.
8e/J)	.	8b-/ 8cc#/	8g\J)	.
(8e/L	4.A\	8b-/ 8cc#/L	(8g\L	.
8fn/	.	8dd/	8a\	.
8c#/J)	.	8ee'/J	8a\J)	.
*v	*v	*	*	*
*clefF4	*	*	*
=19	=19	=19	=19
*^	*	*	*
(4.c#/	[4.D\	(4.ee/	[4.a\	.
8d/)	8D\]	8ffn/L)	8a\]	.
8r	8r	(8f'/	4r	pp
8r	8r	8f'/J)	.	.
4.r	4r	(8f/L	4.r	.
.	.	8e/	.	.
.	8r	8f/J)	.	.
*v	*v	*	*	*
*clefG2	*	*	*
=20	=20	=20	=20
4r	2.r	(8f/L	.
.	.	8e/	.
8d-/	.	8f/J)	.
(8d-/L	.	(8f/L	.
8c/	.	8e/	.
8d-/J)	.	8f/J)	.
(8d-/L	8f\L	4r	.
8c/	8e\	.	.
8d-/J)	8f\J	8a-/ 8bn/	.
=21	=21	=21	=21
*^	*	*	*
(8dn/L	2.G\	[4.a-/ [4.b/	(8f\L	>
8c#/	.	.	8e\	.
8d/J)	.	.	8f\J)	.
(8d/L	.	4a-/] 4b/]	(8f\L	.
8c#/	.	.	8e\	.
8d/J)	.	8a-/ 8b/	8f\J)	.
(8d/L	4.G\	8a-/ (8b/L	8f\L	.
8e/	.	8cc/	8g\	.
8B/J)	.	8dd/J)	8g\J	.
*v	*v	*	*	*
*clefF4	*	*	*
=22	=22	=22	=22
4.c\	(4.ee/	8g\L	p
.	.	8g\	.
.	.	8g#\J	.
4.F\	4.dd/	8r	.
.	.	8g#\L	.
.	.	8a\J	.
4.F#\	4.cc/	8r	.
.	.	8a\L	.
.	.	8d\J	.
=23	=23	=23	=23
*^	*	*	*
8GG/L	[2.GG\	4b/)	4d\	.
8G/	.	.	.	.
8G/J	.	8r	8r	.
8G/L	.	8r	4g\	<
8G/	.	(8a/L	.	.
8G/J	.	8b/J	8f\	.
8G/L	4.GG\]	4cc/	8e\L	>
8G/	.	.	8d\	.
8G/J	.	8f#/	8c\J	.
=24	=24	=24	=24	=24
8GG/L	[2.GG\	8a/L	4B\	.
8G/	.	8g/J)	.	.
8G/J	.	8r	8r	.
8G/L	.	(8b/L	4g\	<
8G/	.	8a/	.	.
8G/J	.	8b/J	8fn\	.
8G/L	4.GG\]	8dd/L	8e\L	>
8G/	.	8cc/	8d\	.
8G/J	.	8f#/J)	8c\J	.
=25	=25	=25	=25	=25
(8GG/	8GG\	8g/	8B\	.
4G/	16G\LL	16r	16r	.
.	16BB\	(16dd/LL	16f\LL	.
.	16C\	16cc/	16e\	.
.	16E-\JJ)	16f#/JJ)	16c\JJ	.
8D/ 8G/	(8GG\	8g/	8B\	.
4G/	16G\LL	16r	16r	.
.	16BB\	(16dd/LL	16fn\LL	.
.	16C\	16cc/	16e\	.
.	16AA\JJ)	16f#/JJ	16c\JJ	.
8G/	(8GG\	8g/)	8B\	.
4G/	16G\LL	16r	16r	.
.	16BB\	16dd/LL	16fn\LL	.
.	16C\	16cc/	16e\	.
.	16E-\JJ)	16f#/JJ	16c\JJ	.
*v	*v	*	*	*
*	*v	*v	*
=26	=26	=26
2.GG;/ 2.D;/ 2.G;/	2.B;/ (2.g;/	p
.	gq\LLL)	.
.	f#q\	.
.	gq\	.
.	dq\	.
.	eq\	.
.	f#q\	.
.	gq\	.
.	aq\	.
.	bq\	.
.	aq\	.
.	gq\	.
.	aq\	.
.	bq\	.
.	ccq\	.
.	ddq\	.
.	ccq\	.
.	bq\	.
.	ccq\	.
.	ddq\	.
.	eeq\	.
.	ff#q\	.
.	ggq\	.
.	ff#q\	.
.	eeq\	.
.	ddq\	.
.	eeq\	.
.	ff#q\	.
.	ggq\	.
.	aaq\JJJ	.
.	bbq\LLL	.
.	aaq\	.
.	ggq\	.
.	aaq\	.
.	bbq\	.
.	cccq\	.
.	dddq\	.
.	eeeq\	.
.	fffnq\	.
.	eeeq\	.
.	dddq\	.
.	ccc#q\JJJ	.
.	eeeq\LLL	.
.	dddq\	.
.	cccnq\	.
.	bbq\	.
.	aaq\	.
.	cccq\	.
.	bbq\	.
.	dddq\	.
.	cccq\	.
.	bbq\	.
.	aaq\	.
.	ggq\	.
.	gg#q\JJJ	.
4.r	16bb'\LL	>
.	16aa'\	.
.	16ggn'\	.
.	16ffn'\	.
.	16ee'\	.
.	16dd'\JJ	.
=27	=27	=27
*^	*	*
8E`/L	4.C\	2.cc\	p
8G`/	.	.	.
8c`/J	.	.	.
8E`/L	4r	.	.
8G`/	.	.	.
8c/J	8r	.	.
.	.	(bq/LL	.
.	.	ccq/JJ	.
8E`/L	4r	[4ee\)	.
8G`/	.	.	.
8c`/J	8r	16.ee\LL]	.
.	.	32cc\JJk	.
=28	=28	=28	=28
8E`/L	4.C\	[4.g/	.
8G`/	.	.	.
8c/J	.	.	.
8E`/L	4r	4g/]	.
8G`/	.	.	.
8c`/J	8r	(16f#'/LL	.
.	.	16g'/JJ	.
8E`/L	4r	16g#'/LL	.
.	.	16a'/	.
8G`/	.	16b-'/	.
.	.	16bn'/	.
8c`/J	8r	16cc'/	.
.	.	16cc'/JJ)	.
=29	=29	=29	=29
8F`/L	4.BB\	2.dd\	.
8G`/	.	.	.
8d`/J	.	.	.
8F`/L	4r	.	.
8G`/	.	.	.
8d`/J	8r	.	.
8F`/L	4r	[4gg\	.
8G`/	.	.	.
8d/J	8r	(32.gg\LLL]	.
.	.	64ff\L	.
.	.	64ee\	.
.	.	64dd\	.
.	.	64ccn\	.
.	.	64b\JJJJ)	.
=30	=30	=30	=30
8F`/L	4.BB\	8a'/	.
8G`/	.	[4g/	.
8d/J	.	.	.
8F`/L	4r	4g/]	.
8G`/	.	.	.
8d/J	8r	(16g'/LL	<
.	.	16a'/JJ	.
8F`/L	4.GG\	16b-'/LL	.
.	.	16bn'/	.
8G`/	.	16cc'/	.
.	.	16cc#'/	.
8B/J	.	16dd'/	.
.	.	16dd#'/JJ)	.
*v	*v	*	*
=31	=31	=31
8C`\ 8E`\L	(40ee\LLL	.
.	40ff\	.
.	40ee\	.
.	40dd#\	.
.	40ee\JJ)	.
8G`\	8ccc'\J	.
8c`\J	8r	.
8AA`\L	(40ff\LLL	.
.	40gg\	.
.	40ff\	.
.	40ee\	.
.	40ff\JJ)	.
8A`\	8ccc'\J	.
8c`\J	8r	.
8EE\L	(40gg\LLL	.
.	40aa\	.
.	40gg\	.
.	40ff#\	.
.	40gg\JJ)	.
8E`\ 8G`\	8ccc'\J	.
8G`\ 8c`\J	8r	.
=32	=32	=32
8FF'\L	8gg#'\	<
8F`\ 8A`\	[4aa\	.
8A`\ 8c`\J	.	.
8FF`\L	8aa\]	.
8F`\ 8A`\	[4aa\	.
8A`\ 8c#`\J	.	.
8FF`\L	8aa\L]	.
8F`\ 8A`\	16ff\L	>
.	16ee\	.
8A`\ 8d`\J	16ff\	.
.	16dd\JJ	.
=33	=33	=33
8GG`\L	(32cc\LLL	.
.	32dd\	.
.	32cc\	.
.	32b\J)	<
8G`\ 8c`\	16cc'\	.
.	16dd'\	.
8c`\ 8e`\J	16ee'\	.
.	16ff'\JJ	.
8GG`\L	16gg'\LL	.
.	16aa'\	.
8G`\ 8c`\	16bb'\	.
.	16ccc'\	.
8c`\ 8e`\J	16ddd'\	.
.	16eee'\JJ	.
8GG`\L	8fff'\	.
8G`\ 8d`\	8r	.
8d\ 8f\J	8b'\	p
=34	=34	=34
8C`\L	(4.f/ 4.dd/	.
8G`\	.	.
8B`\J	.	.
8C`\ 8c`\L	8e/) 8cc/L	.
8G\	(8g/	.
8E-\J	8e-/J	.
*	*clefF4	*clefF4
8C/L	8c\L	.
8GG/	8G\	.
8EE-/J	8E-\J	.
=35	=35	=35
(16CC/LL	4C/)	pp
16EE-/	.	.
16GG/)	.	.
16GG'/	.	.
16GG'/	8r	.
16GG'/JJ	.	.
(16CC/LL	4r	.
16EE-/	.	.
16GG/)	.	.
16GG'/	.	.
16GG'/	8r	.
16GG'/JJ	.	.
(16CC/LL	4r	.
16EE-/	.	.
16GG/)	.	.
16GG'/	.	.
16GG'/	8r	.
16GG'/JJ	.	.
*	*clefG2	*clefG2
=36	=36	=36
16CC/LL	4.e-/ (4.ee-/	pp
16EE-/	.	.
16AA-/	.	.
16AA-/	.	.
16AA-'/	.	.
16AA-'/JJ	.	.
16CC/LL	4.c/ 4.cc/	.
16EE-/	.	.
16AA-/	.	.
16AA-'/	.	.
16AA-'/	.	.
16AA-'/JJ	.	.
16CC/LL	4.A-/ 4.a-/	.
16EE-/	.	.
16AA-/	.	.
16AA-'/	.	.
16AA-'/	.	.
16AA-'/JJ	.	.
=37	=37	=37
(16DD-/LL	[2.F/ [2.f/)	.
16FF/	.	.
16AA-/)	.	.
16AA-'/	.	.
16AA-'/	.	.
16AA-'/JJ	.	.
(16DD-/LL	.	.
16FF/	.	.
16AA-/)	.	.
16AA-'/	.	.
16AA-'/	.	.
16AA-'/JJ	.	.
(16DD-/LL	4F/] 4f/]	.
16FF/	.	.
16AAn/)	.	.
16AA'/	.	.
16AA'/	16f\LL	.
16AA'/JJ	16ff\JJ	.
=38	=38	=38
(16DD-/LL	[4f/ [4ff/	<
16FF/	.	.
16BB-/)	.	.
16BB-'/	.	.
16BB-'/	16f/] 16ff/LL]	.
16BB-'/JJ	16e-/ 16ee-/JJ	.
(16DD-/LL	(8e-/ 8ee-/L	.
16FF/	.	.
16BB-/)	8.d-/ 8.dd-/	.
16BB-'/	.	.
16BB-'/	.	.
16BB-'/JJ	(16c/) 16cc/Jk	.
(16DDn/LL	8c/ 8cc/L	.
16FF/	.	.
16BB-/)	8.B-/ 8.b-/	.
16BB-'/	.	.
16BB-'/	.	.
16BB-'/JJ	16A-/) 16a-/Jk	.
=39	=39	=39
16EE-/LL	4.G/ (4.g/	f
16BB-/	.	.
16D-/	.	.
16D-'/	.	.
16D-'/	.	.
16D-'/JJ	.	.
16EEn/LL	4.d-/ 4.g/ 4.dd-/	.
16BB-/	.	.
16En/	.	.
16E'/	.	.
16E'/	.	.
16E'/JJ	.	.
16FF/LL	4.c/ 4.a-/ 4.cc/	.
16AA-/	.	.
16F/	.	.
16F'/	.	.
16F'/	.	.
16F'/JJ	.	.
=40	=40	=40
(16DD-/LL	4.B-/ 4.d-/ 4.b-/	>
16D-/	.	.
16F/)	.	.
16F'/	.	.
16F'/	.	.
16F'/JJ	.	.
(16EE-/LL	4.A-/ 4.c/ 4.a-/	.
16C/	.	.
16E-/)	.	.
16E-'/	.	.
16E-'/	.	.
16E-'/JJ	.	.
(16EE-/LL	4.G/ 4.B-/ 4.d-/ 4.e-/)	.
16BB-/	.	.
16D-/)	.	.
16D-'/	.	.
16D-'/	.	.
16D-'/JJ	.	.
=41	=41	=41
16AAA-\ 16AA-\LL	16A-/ 16c/ 16e-/LL	.
16A-'\	16c'/ 16e-'/	.
16A-'\	16c'/ 16e-'/	.
16A-'\	16c'/ 16e-'/	.
16A-'\	16c'/ 16e-'/	.
16A-'\JJ	16c'/ 16e-'/JJ	.
16A-'\LL	16c'/ 16e-'/LL	.
16A-'\	16c'/ 16e-'/	.
16A-'\	16c'/ 16e-'/	.
16A-'\	16c'/ 16e-'/	.
16A-'\	16c'/ 16e-'/	.
16A-'\JJ	16c'/ 16e-'/JJ	.
16A-'\LL	16e-'/LL	.
16A-'\	16c'/ 16e-'/	.
16A-'\	16c'/ 16e-'/	.
16A-'\	16c'/ 16e-'/	.
16A-'\	16c'/ 16e-'/	.
16A-'\JJ	16c'/ 16e-'/JJ	.
=42	=42	=42
.	(32cccq/LLL	.
.	32ddd-q/JJJ	.
16A-'\ 16c'\ 16e-'\LL	16eee-'\LL)	.
16A-'\ 16c'\ 16e-'\	16ddd-'\	.
16A-'\ 16c'\ 16e-'\	16ccc'\	.
16A-'\ 16c'\ 16e-'\	16bb-'\	.
16A-'\ 16c'\ 16e-'\	16aa-'\	.
16A-'\ 16c'\ 16e-'\JJ	16gg'\JJ	.
16A-'\ 16c'\ 16e-'\LL	16ff'\LL	.
16A-'\ 16c'\ 16e-'\	16ee-'\	.
16A-'\ 16c'\ 16e-'\	16dd-'\	.
16A-'\ 16c'\ 16e-'\	16cc'\	.
16A-'\ 16c'\ 16e-'\	16b-'\	.
16A-'\ 16c'\ 16e-'\JJ	16a-'\JJ	.
16A-'\ 16c'\ 16e-'\LL	16g'/LL	.
16A-'\ 16c'\ 16e-'\	16a-'/	.
16A-'\ 16c'\ 16e-'\	16b-'/	.
16A-'\ 16c'\ 16e-'\	16a-'/	.
16A-'\ 16c'\ 16e-'\	16cc'/	.
16A-'\ 16c'\ 16e-'\JJ	16a-'/JJ	.
=43	=43	=43
16B-\	16g'/LL	.
16r	16B-'/ 16d-'/ 16e-'/	.
8r	16B-'/ 16d-'/ 16e-'/	.
.	16B-'/ 16d-'/ 16e-'/	.
8r	16B-'/ 16d-'/ 16e-'/	.
.	16B-'/ 16d-'/ 16e-'/JJ	.
4r	16B-'/ 16d-'/ 16e-'/LL	.
.	16B-'/ 16d-'/ 16e-'/	.
.	16B-'/ 16d-'/ 16e-'/	.
.	16B-'/ 16d-'/ 16e-'/	.
8r	16B-'/ 16d-'/ 16e-'/	.
.	16B-'/ 16d-'/ 16e-'/JJ	.
4r	16B-'/ 16d-'/ 16e-'/LL	.
.	16B-'/ 16d-'/ 16e-'/	.
.	16B-'/ 16d-'/ 16e-'/	.
.	16B-'/ 16d-'/ 16e-'/	.
8r	16B-'/ 16d-'/ 16e-'/	.
.	16B-'/ 16d-'/ 16e-'/JJ	.
=44	=44	=44
(16Gq/LL	.	.
16A-q/JJ	.	.
16B-'\LL)	16d-'/ 16e-'/LL	.
16A-'\	16d-'/ 16e-'/	.
16G'\	16d-'/ 16e-'/	.
16F'\	16d-'/ 16e-'/	.
16E-'\	16d-'/ 16e-'/	.
16D-'\JJ	16d-'/ 16e-'/JJ	.
16C'/LL	16d-'/ 16e-'/LL	.
16BB-'/	16d-'/ 16e-'/	.
16AA-'/	16d-'/ 16e-'/	.
16GG'/	16d-'/ 16e-'/	.
16FF'/	16d-'/ 16e-'/	.
16EE-'/JJ	16d-'/ 16e-'/JJ	.
16DDn'/LL	16B-'/ 16d-'/ 16e-'/LL	.
16EE-'/	16B-'/ 16d-'/ 16e-'/	.
16FF'/	16B-'/ 16d-'/ 16e-'/	.
16EE-'/	16B-'/ 16d-'/ 16e-'/	.
16GG'/	16B-'/ 16d-'/ 16e-'/	.
16EE-'/JJ	16B-'/ 16d-'/ 16e-'/JJ	.
=45	=45	=45
16AAA-'\ 16AA-'\LL	16c'/ 16e-'/LL	.
16A-'\	16c'/ 16e-'/	.
16A-'\	16c'/ 16e-'/	.
16A-'\	16c'/ 16e-'/	.
16A-'\	16c'/ 16e-'/	.
16A-'\JJ	16c'/ 16e-'/JJ	.
16A-'\LL	16c'/ 16e-'/LL	.
16A-'\	16c'/ 16e-'/	.
16A-'\	16c'/ 16e-'/	.
16A-'\	16c'/ 16e-'/	.
16A-'\	16c'/ 16e-'/	.
16A-'\JJ	16c'/ 16e-'/JJ	.
16A-'\LL	16c'/ 16en'/LL	.
16A-'\	16c'/ 16e'/	.
16A-'\	16c'/ 16e'/	.
16A-'\	16c/ 16e/	.
16A-'\	16c'/ 16e'/	.
16A-'\JJ	16c'/ 16e'/JJ	.
=46	=46	=46
.	(32aa-q/LLL	.
.	32bb-q/JJJ)	.
16F'\ 16A-'\ 16c'\ 16f'\LL	16ccc'\LL	.
16F'\ 16A-'\ 16c'\	16bb-'\	.
16F'\ 16A-'\ 16c'\	16aa-'\	.
16F'\ 16A-'\ 16c'\	16gg'\	.
16F'\ 16A-'\ 16c'\	16ff'\	.
16F'\ 16A-'\ 16c'\JJ	16ee-'\JJ	.
16F'\ 16A-'\ 16c'\LL	16dd-'\LL	.
16F'\ 16A-'\ 16c'\	16cc'\	.
16F'\ 16A-'\ 16c'\	16b-'\	.
16F'\ 16A-'\ 16c'\	16a-'\	.
16F'\ 16A-'\ 16c'\	16g'\	.
16F'\ 16A-'\ 16c'\JJ	16f'\JJ	.
16F'\ 16A-'\ 16c'\LL	16en'/LL	.
16F'\ 16A-'\ 16c'\	16f'/	.
16F'\ 16A-'\ 16c'\	16g'/	.
16F'\ 16A-'\ 16c'\	16f'/	.
16F'\ 16A-'\ 16c'\	16a-'/	.
16F'\ 16A-'\ 16c'\JJ	16f'/JJ	.
=47	=47	=47
16G'\ 16B-'\ 16c'\	16en'/LL	.
16r	16G'/ 16B-'/ 16c'/	.
8r	16G'/ 16B-'/ 16c'/	.
.	16G'/ 16B-'/ 16c'/	.
8r	16G'/ 16B-'/ 16c'/	.
.	16G'/ 16B-'/ 16c'/JJ	.
4r	16G'/ 16B-'/ 16c'/LL	.
.	16G'/ 16B-'/ 16c'/	.
.	16G'/ 16B-'/ 16c'/	.
.	16G'/ 16B-'/ 16c'/	.
8r	16G'/ 16B-'/ 16c'/	.
.	16G'/ 16B-'/ 16c'/JJ	.
4r	16G'/ 16B-'/ 16c'/LL	.
.	16G'/ 16B-'/ 16c'/	.
.	16G'/ 16B-'/ 16c'/	.
.	16G'/ 16B-'/ 16c'/	.
8r	16G'/ 16B-'/ 16c'/	.
.	16G'/ 16B-'/ 16c'/JJ	.
=48	=48	=48
(Enq/LLL	.	.
Fq/JJJ	.	.
16G'\LL)	16B-'/ 16c'/LL	.
16F'\	16B-'/ 16c'/	.
16E'\	16B-'/ 16c'/	.
16D-'\	16B-'/ 16c'/	.
16C'\	16B-'/ 16c'/	.
16BB-'\JJ	16B-'/ 16c'/JJ	.
16AA-'/LL	16B-'/ 16c'/LL	.
16GG'/	16B-'/ 16c'/	.
16FF'/	16B-'/ 16c'/	.
16EE'/	16B-'/ 16c'/	.
16DD-'/	16B-'/ 16c'/	.
16CC'/JJ	16B-'/ 16c'/JJ	.
16BBBn'/LL	16G'/ 16B-'/ 16c'/LL	.
16CC'/	16G'/ 16B-'/ 16c'/	.
16DD-'/	16G'/ 16B-'/ 16c'/	.
16CC'/	16G'/ 16B-'/ 16c'/	.
16EE'/	16G'/ 16B-'/ 16c'/	.
16CC'/JJ	16G'/ 16B-'/ 16c'/JJ	.
=49	=49	=49
*^	*	*
2.r	16F'\LL	16A-'/ 16c'/LL	.
.	16F'\	16A-'/ 16d-'/	.
.	16F'\	16A-'/ 16d-'/	.
.	16F'\	16A-'/ 16d-'/	.
.	16F'\	16A-'/ 16d-'/	.
.	16F'\JJ	16A-'/ 16d-'/JJ	.
.	16F'\ 16A-'\ 16d-'\LL	(16aa-\LL	.
.	16F'\ 16A-'\ 16d-'\	16ff\	.
.	16F'\ 16A-'\ 16d-'\	16dd-\)	.
.	16F'\ 16A-'\ 16d-'\	16dd-'\	.
.	16F'\ 16A-'\ 16d-'\	16dd-\	.
.	16F'\ 16A-'\ 16d-'\JJ	16dd-'\JJ	.
16G'/ 16c'/LL	16E-\LL	4.r	.
16G'/ 16c'/	16E-\	.	.
16G'/ 16c'/	16E-\	.	.
16G'/ 16c'/	16E-\	.	.
16G'/ 16c'/	16E-\	.	.
16G'/ 16c'/JJ	16E-\JJ	.	.
=50	=50	=50	=50
16F'/ 16Bn'/LL	16DDn'\ 16Dn'\LL	4.r	.
16F/ 16B/	16D\	.	.
16F/ 16B/	16D\	.	.
16F/ 16B/	16D\	.	.
16F/ 16B/	16D\	.	.
16F'/ 16B'/JJ	16D'\JJ	.	.
4.r	16D'\ 16F'\ 16B'\LL	(16ff\LL	.
.	16D'\ 16F'\ 16B'\	16dd\	.
.	16D'\ 16F'\ 16B'\	16b\)	.
.	16D'\ 16F'\ 16B'\	16b'\	.
.	16D'\ 16F'\ 16B'\	16b'\	.
.	16D'\ 16F'\ 16B'\JJ	16b'\JJ	.
16E-'/ 16A-'/LL	16C'\LL	4.r	.
16E-'/ 16A-'/	16C'\	.	.
16E-'/ 16A-'/	16C\	.	.
16E-'/ 16A-'/	16C\	.	.
16E-'/ 16A-'/	16C\	.	.
16E-'/ 16A-'/JJ	16C'\JJ	.	.
=51	=51	=51	=51
16D'/ 16G'/LL	16BBB'\ 16BB'\LL	4.r	.
16D'/ 16G'/	16BB\	.	.
16D'/ 16G'/	16BB\	.	.
16D'/ 16G'/	16BB\	.	.
16D/ 16G/	16BB\	.	.
16D'/ 16G'/JJ	16BB'\JJ	.	.
2.r	16BB'\ 16D'\ 16G'\LL	(16ddd\LL	.
.	16BB'\ 16D'\ 16G'\	16bb\	.
.	16BB'\ 16D'\ 16G'\	16ff\)	.
.	16BB'\ 16D'\ 16G'\	16ff'\	.
.	16BB'\ 16D'\ 16G'\	16ff'\	.
.	16BB'\ 16D'\ 16G'\JJ	16ff'\JJ	.
.	16C'\ 16E-'\ 16G'\LL	(16ccc\LL	.
.	16C'\ 16E-'\ 16G'\	16gg\	.
.	16C'\ 16E-'\ 16G'\	16ee-\)	.
.	16C'\ 16E-'\ 16G'\	16ee-'\	.
.	16C'\ 16E-'\ 16G'\	16ee-'\	.
.	16C'\ 16E-'\ 16G'\JJ	16ee-'\JJ	.
*v	*v	*	*
=52	=52	=52
16FF'\LL	(16aa-\LL	.
16F'\ 16A-'\ 16d-'\	16ff\)	.
16F'\ 16A-'\ 16d-'\	16f'\ 16a-'\ 16dd-'\	<
16F'\ 16A-'\ 16d-'\	16f'\ 16a-'\ 16dd-'\	.
16F'\ 16A-'\ 16d-'\	16f'\ 16a-'\ 16dd-'\	.
16F'\ 16A-'\ 16d-'\JJ	16f'\ 16a-'\ 16dd-'\JJ	.
16FF'\LL	(16aa-\LL	.
16F'\ 16A-'\ 16d-'\	16ff\)	.
16F'\ 16A-'\ 16d-'\	16f'\ 16a-'\ 16dd-'\	.
16F'\ 16A-'\ 16d-'\	16f'\ 16a-'\ 16dd-'\	.
16F'\ 16A-'\ 16d-'\	16f'\ 16a-'\ 16dd-'\	.
16F'\ 16A-'\ 16d-'\JJ	16f'\ 16a-'\ 16dd-'\JJ	.
16FF#'\LL	(16aan\LL	.
16F#'\ 16An'\ 16c'\	16ee-\)	.
16F#'\ 16A'\ 16c'\	16e-'\ 16an'\ 16cc'\	.
16F#'\ 16A'\ 16c'\	16e-'\ 16a'\ 16cc'\	.
16F#'\ 16A'\ 16c'\	16e-'\ 16a'\ 16cc'\	.
16F#'\ 16A'\ 16c'\JJ	16e-'\ 16a'\ 16cc'\JJ	.
=53	=53	=53
*	*^	*
16GG'\LL	4d/ 4g/ 4b/	4.r	f
16BB'\	.	.	.
16D\	.	.	.
16G'\	.	.	.
16B'\	8r	.	.
16d'\JJ	.	.	.
*clefG2	*	*	*
8g/L	[4.ff/	8r	.
8f#/	.	(8dd\L	.
8g/J	.	8b\J	.
4a-/	8ff/]	4cc\	.
.	4ee-/	.	.
8f#/	.	8an\	.
*clefF4	*	*	*
=54	=54	=54	=54
16GG'\LL	4dd/	4b\)	.
16BB'\	.	.	.
16D'\	.	.	.
16G'\	.	.	.
16B'\	8r	8r	.
16d'\JJ	.	.	.
*clefG2	*	*	*
(8g/L	[4.ff/	8r	.
8f#/	.	(8dd\L	.
8g/J	.	8b\J	.
4a-/	8ff/]	4cc\	.
.	4ee-/	.	.
[8f#/)	.	[8an\)	.
=55	=55	=55	=55
*^	*	*	*
4f#/]	4.G\	4.dd/	8a\L]	.
.	.	.	8b\	.
[8fn/	.	.	[8a-\J	.
4f/]	4.G\	4.dd-/	8a-\L]	.
.	.	.	8b-\	.
[8e/	.	.	[8g\J	.
4e/]	4.G\	4.cc/	8g\L]	.
.	.	.	8an\	.
8e-/	.	.	[8f#\J	.
*v	*v	*	*	*
=56	=56	=56	=56
4G/ 4d/	4bn/	(8f#\L]	.
.	.	8a-\	.
8r	8r	8fn\J)	>
*clefF4	*	*	*
4G\ 4d\	8r	8r	.
.	4b/	(8g\L	.
8r	.	8f\J)	.
4G\ 4c\	8r	8r	.
.	4cc/	(8g\L	.
8r	.	8e-\J)	.
=57	=57	=57	=57
4GG/ 4G/	8r	8r	.
.	4e-/ 4f#/	(8c\L	pp
8r	.	8A\J)	.
*	*v	*v	*
*	*clefF4	*clefF4
*	*^	*
4GGG/ 4GG/	8r	8r	.
.	4c/	(8F#\ 8A\L	.
8r	.	8E-\J)	.
4GGG/ 4GG/	8r	8r	.
.	(4F#/	8E-\L	.
8r	.	8AA\J)	.
*	*v	*v	*
=58	=58	=58
*^	*	*
8GG/L	4GGG\	4BB\ 4D\ 4G\	.
8GG/	.	.	.
8GG/J	8r	8r	.
8GG/L	4r	8r	.
8GG/	.	16r	.
.	.	16BB'\ 16G'\LL	.
8GG/J	8r	16C'\ 16A'\	.
.	.	16D'\ 16B'\JJ	.
8GG/L	4r	4.E-\ (4.c\	.
8GG/	.	.	.
8GG/J	8FFF#\	.	.
=59	=59	=59	=59
8GG/L	4GGG\	4.D\ 4.B\)	.
8GG/	.	.	.
8GG/J	8r	.	.
8GG/L	4r	8r	.
8GG/	.	16r	.
.	.	16G'\ 16B'\LL	.
8GG/J	8r	16A'\ 16c'\	.
.	.	16B'\ 16d'\JJ	.
8GG/L	4r	4.c\ (4.e-\	.
8GG/	.	.	.
8GG/J	8FFF#\	.	.
=60	=60	=60	=60
8GG/L	4GGG\	4B\ 4d\)	.
8GG/	.	.	.
8GG/J	8r	8r	.
*	*	*clefG2	*clefG2
8GG/L	4r	8r	.
8GG/	.	16r	.
.	.	16B'/ 16g'/LL	.
8GG/J	8r	16c'/ 16a'/	.
.	.	16d'/ 16b'/JJ	.
4r	8GG\L	4.e-/ (4.cc/	.
.	8GG\	.	.
8F#/	8GG\J	.	.
=61	=61	=61	=61
*	*	*^	*
4G/	8GG\L	4.d/ 4.b/)	4.r	.
.	8G\	.	.	.
8r	8G\J	.	.	.
2.r	8G\L	4.cc/ (4.ee-/	4r	.
.	8G\	.	.	.
.	8G\J	.	8f#\	.
.	8G\L	4.b/ 4.dd/	4.g\	.
.	8G\	.	.	.
.	8G\J	.	.	.
*v	*v	*	*	*
=62	=62	=62	=62
8G\L	4.cc/ 4.ee/	4r	.
8G\	.	.	.
8G\J	.	8f#\	.
8G\L	4.b/ 4.dd/)	4.g\	.
8G\	.	.	.
8G\J	.	.	.
8G\L	4.cc/ 4.ee/ (4.aa/	4r	.
8G\	.	.	.
8G\J	.	8f#\	.
=63	=63	=63	=63
8G\L	4.b/ 4.dd/ 4.gg/	4g\	.
8G\	.	.	.
8G\J	.	8r	.
8G\	4.cc/ 4.ffn/	4.a\	>
8GG/L	.	.	.
8GG/J	.	.	.
8GG/L	4.r	4.g\ 4.b\ 4.een\	.
8GG/	.	.	.
8GG/J	.	.	.
=64	=64	=64	=64
*^	*	*	*
8GG/L	[4.GG\	4.f/ 4.a/ 4.dd/	2.r	.
16AA/L	.	.	.	.
16BB/	.	.	.	.
16C/	.	.	.	.
16D/JJ	.	.	.	.
16E/LL	4GG\]	4.e/ 4.g/ 4.cc/)	.	.
16F/	.	.	.	.
16G/	.	.	.	.
16A/	.	.	.	.
16B/	8r	.	.	.
16c/JJ	.	.	.	.
4.r	4.G\	16f'/ 16b'/LL	16d'\LL	.
.	.	16g'/ 16cc#'/	16e\	.
.	.	16a'/ 16dd'/	16f\	.
.	.	16g/ 16ee/	16c#\	.
.	.	16f'/ 16ff'/	16d\	.
.	.	16f'/ 16b'/JJ	16d'\JJ	.
*v	*v	*	*	*
=65	=65	=65	=65
16C`\ 16E`\LL	2.cc/	8e\	p
16E`\ 16G`\	.	.	.
16G`\ 16c`\	.	4r	.
16E`\ 16G`\	.	.	.
16C`\ 16E`\	.	.	.
16E`\ 16G`\JJ	.	.	.
16C`\ 16E`\LL	.	4.r	.
16E`\ 16G`\	.	.	.
16G`\ 16c`\	.	.	.
16E`\ 16G`\	.	.	.
16C`\ 16E`\	.	.	.
16E`\ 16G`\JJ	.	.	.
.	.	(bq/LLL	.
.	.	ccq/JJJ	.
16C`\ 16E`\LL	4.r	[4ee\)	.
16E`\ 16G`\	.	.	.
16G`\ 16c`\	.	.	.
16E`\ 16G`\	.	.	.
16C`\ 16E`\	.	16.ee\LL]	.
16E`\ 16G`\JJ	.	.	.
.	.	32cc\JJk	.
*	*v	*v	*
=66	=66	=66
16C`\ 16E`\LL	[4.g/	.
16E`\ 16G`\	.	.
16G`\ 16c`\	.	.
16E`\ 16G`\	.	.
16C`\ 16E`\	.	.
16E`\ 16G`\JJ	.	.
16C`\ 16E`\LL	4g/]	.
16E`\ 16G`\	.	.
16G`\ 16c`\	.	.
16E`\ 16G`\	.	.
16C'\ 16E'\	(16f#'/LL	.
16E`\ 16G`\JJ	16g'/JJ	.
16C'\ 16E'\LL	16g#'/LL	.
16E`\ 16G`\	16a'/	.
16G`\ 16c`\	16b-'/	.
16E\ 16G\	16bn'/	.
16C`\ 16E`\	16cc'/	.
16E`\ 16G`\JJ	16cc#'/JJ)	.
=67	=67	=67
16BB\ 16F\LL	2.dd\	.
16F`\ 16G`\	.	.
16G`\ 16d`\	.	.
16F`\ 16G`\	.	.
16BB`\ 16F`\	.	.
16F`\ 16G`\JJ	.	.
16BB`\ 16F`\LL	.	.
16F`\ 16G`\	.	.
16G`\ 16d`\	.	.
16F`\ 16G`\	.	.
16BB`\ 16F`\	.	.
16F`\ 16G`\JJ	.	.
.	(cc#q/LL	.
.	ddq/JJ	.
16BB`\ 16F`\LL	[4ff\)	.
16F`\ 16G`\	.	.
16G`\ 16d`\	.	.
16F`\ 16G`\	.	.
16BB`\ 16F`\	16.ff\LL]	.
16F`\ 16G`\JJ	.	.
.	32dd\JJk	.
=68	=68	=68
16BB`\ 16F`\LL	[4.g/	.
16F`\ 16G`\	.	.
16G`\ 16d`\	.	.
16F`\ 16G`\	.	.
16BB`\ 16F`\	.	.
16F`\ 16G`\JJ	.	.
16BB`\ 16F`\LL	4g/]	.
16F`\ 16G`\	.	.
16G`\ 16d`\	.	.
16F`\ 16G`\	.	.
16BB`\ 16F`\	(16g'/LL	<
16F`\ 16G`\JJ	16a'/JJ	.
16GG`\ 16F`\LL	16b-'/LL	.
16F`\ 16G`\	16bn'/	.
16G`\ 16B`\	16cc'/	.
16F`\ 16G`\	16cc#'/	.
16GG`\ 16F`\	16dd'/	.
16F`\ 16G`\JJ	16dd#/JJ)	.
=69	=69	=69
.	(eq/	.
16C`\LL	4.ee\)	.
16G`\	.	.
16c`\	.	.
16G`\	.	.
16E`\	.	.
16C'\JJ	.	.
.	(fq/	.
16AA`\LL	4.ff\)	.
16A`\	.	.
16c`\	.	.
16A`\	.	.
16F`\	.	.
16C\JJ	.	.
.	(gq/	.
16EE\LL	4.gg\)	.
16G`\	.	.
16c`\	.	.
16G`\	.	.
16E'\	.	.
16C`\JJ	.	.
=70	=70	=70
16FF'\LL	8gg#'\	<
16F`\ 16A`\	.	.
16A`\ 16c`\	[4aa\	.
16F`\ 16A`\	.	.
16A'\ 16c'\	.	.
16F`\ 16A`\JJ	.	.
16FF\LL	8aa\]	.
16F`\ 16A`\	.	.
16A`\ 16c#`\	[4aa'\	.
16F`\ 16A`\	.	.
16A`\ 16c#`\	.	.
16F`\ 16A`\JJ	.	.
16FF'\LL	8aa\L]	.
16F`\ 16A`\	.	.
.	(ggnq/	.
16A`\ 16d`\	(16ff\L)	.
16F`\ 16A`\	16ee\	.
16A`\ 16d`\	16ff\	.
16F`\ 16A`\JJ	16dd\JJ)	.
=71	=71	=71
16GG\LL	8cc'\L	.
16G`\ 16c`\	.	.
.	ddq/	.
16c`\ 16e`\	(16.cc\L	.
16G`\ 16c`\	.	.
.	32b\k	.
16c`\ 16e`\	16.cc\	.
16G`\ 16c`\JJ	.	.
.	32ee\JJk	.
16GG\LL	[4.g/)	.
16G`\ 16c`\	.	.
16c`\ 16e`\	.	.
16G`\ 16c`\	.	.
16c`\ 16e`\	.	.
16G`\ 16c`\JJ	.	.
16GG\LL	(32g/LLL]	.
.	32a/	.
16G`\ 16d`\	32g/	.
.	32f#/JJJ	.
16d`\ 16f`\	48g/LLL	.
.	48a/	.
.	48b/JJJ	.
16G`\ 16d`\	48cc\LLL	.
.	48dd\	.
.	48ee\JJJ)	.
16d\ 16f\	16ffn'\LL	.
16G`\ 16d`\JJ	32r	.
.	32b\JJk	.
=72	=72	=72
16C`\LL	4.f/ (4.dd/	.
16G`\	.	.
16B`\	.	.
16G`\	.	.
16B`\	.	.
16G\JJ	.	.
16C`\ 16c`\LL	16e/ 16cc/LL)	.
(16G\	(16g/	.
16F#\	16f#/	.
16G\	16g/	.
16A\	16a/	.
16G\JJ	16g/JJ	.
16Fn\LL	16fn/LL	.
16E\	16e/	.
16G\	16g/	.
16F\	16f/	.
16E\	16e/	.
16D\JJ)	16d/JJ)	.
=73	=73	=73
(CCq/	.	.
2.C/)	16c`/LL	.
.	16G`/ 16c`/	.
.	16c`/ 16e`/	.
.	16G`/ 16c`/	.
.	16c`/ 16e`/	.
.	16G`/ 16c`/JJ	.
.	16c`/ 16e`/LL	.
.	16G`/ 16c`/	.
.	16c`/ 16e`/	.
.	16G`/ 16c`/	.
.	16c`/ 16e`/	.
.	16G`/ 16c`/JJ	.
BBq/LL	.	.
Cq/JJ	.	.
[4E\	16c`/ 16e`/LL	.
.	16G`/ 16c`/	.
.	16c`/ 16e`/	.
.	16G`/ 16c`/	.
16.E\LL]	16c`/ 16e`/	.
.	16G`/ 16c`/JJ	.
32C\JJk	.	.
=74	=74	=74
16GG\LL	32r	.
.	32b\LLL	.
16G`\ 16c`\	32dd\	.
.	32cc\JJJ	.
16c`\ 16e`\	32ee\LLL	.
.	32dd\	.
16G`\ 16c`\	32ff\	.
.	32ee\JJJ	.
16c`\ 16e`\	32gg\LLL	.
.	32ff\	.
16G`\ 16c`\JJ	32aa\	.
.	32gg\JJJ	.
16c`\ 16e`\LL	32bb\LLL	.
.	32aa\	.
16G`\ 16c`\	32ccc\	.
.	32bb\JJJ	.
16c`\ 16e`\	32ddd\LLL	.
.	32ccc\	.
16G`\ 16c`\	32eee\	.
.	32ddd\JJJ	.
16c`\ 16e`\	32ccc\LLL	.
.	32bb\	.
16G`\ 16c`\JJ	32aa\	.
.	32gg\JJJ	.
16c`\ 16e`\LL	32ff#\LLL	.
.	32gg\	.
16G`\ 16c`\	32aa\	.
.	32gg\JJJ	.
16c`\ 16e`\	32ffn\LLL	.
.	32ee\	.
16G`\ 16c`\	32dd\	.
.	32cc\JJJ	.
16c`\ 16e`\	32b\LLL	.
.	32cc\	.
16G`\ 16c`\JJ	32ee\	.
.	32cc\JJJ	.
=75	=75	=75
AAq/	.	.
2.D\	16b/LL	.
.	16G/ 16B/	.
.	16B/ 16f/	.
.	16G/ 16B/	.
.	16B/ 16f/	.
.	16G/ 16B/JJ	.
.	16B/ 16f/LL	.
.	16G/ 16B/	.
.	16B/ 16f/	.
.	16G/ 16B/	.
.	16B/ 16f/	.
.	16G/ 16B/JJ	.
(C#q/LL	.	.
Dq/JJ)	.	.
[4F\	16B/ 16f/LL	.
.	16G/ 16B/	.
.	16B/ 16f/	.
.	16G/ 16B/	.
16.F\LL]	16B/ 16f/	.
.	16G/ 16B/JJ	.
32D\JJk	.	.
=76	=76	=76
16GG'\LL	32r	.
.	32b\LLL	.
16G'\ 16d'\	32dd\	.
.	32cc\JJJ	.
16d'\ 16f'\	32ee\LLL	.
.	32dd\	.
16G'\ 16d'\	32ff\	.
.	32ee\JJJ	.
16d'\ 16f'\	32gg\LLL	.
.	32ff\	.
16G'\ 16d'\JJ	32aa\	.
.	32gg\JJJ	.
16d'\ 16f'\LL	32bb\LLL	.
.	32aa\	.
16G'\ 16d'\	32ccc\	.
.	32bb\JJJ	.
16d'\ 16f'\	32ddd\LLL	.
.	32ccc#\	.
16G'\ 16d'\	32eee\	.
.	32ddd\JJJ	.
16d'\ 16f'\	32fff\LLL	.
.	32eee\	.
16G'\ 16d'\JJ	32ddd\	.
.	32cccn\JJJ	.
16d'\ 16f'\LL	32bb\LLL	.
.	32ccc\	.
16G'\ 16d'\	32ccc#\	.
.	32ddd\JJJ	.
16d'\ 16f'\	32cccn\LLL	.
.	32bb\	.
16G'\ 16d'\	32aa\	.
.	32gg\JJJ	.
16d'\ 16f'\	32ff#\LLL	.
.	32gg\	.
16G'\ 16d'\JJ	32aa\	.
.	32ff#\JJJ	.
=77	=77	=77
16C\LL	8dd#\	.
16G\ 16c\	.	.
16c\ 16e\	4ee\	.
16G\ 16c\	.	.
16c\ 16e\	.	.
16G\ 16c\JJ	.	.
.	(eeq/	.
16AA\LL	[4.ccc\)	.
16A\ 16c\	.	.
16c\ 16e\	.	.
16A\ 16c\	.	.
16c\ 16e\	.	.
16A\ 16c\JJ	.	.
16GG\LL	16ccc'\LL]	.
16G\ 16c\	16bb'\	.
16c\ 16e\	16aa'\	.
16G\ 16c\	16gg'\	.
16c\ 16e\	16ff#'\	.
16G\ 16c\JJ	16ee'\JJ	.
=78	=78	=78
16FF#\LL	8ee'\	<
16A\ 16c\	.	.
16c\ 16d\	[4dd\	.
16A\ 16c\	.	.
16c\ 16d\	.	.
16A\ 16c\JJ	.	.
16FF#\LL	16dd\LK]	.
16A\ 16c\	8dd\	.
16c\ 16d\	.	.
16A\ 16c\	8dd\	.
16c\ 16d\	.	.
16A\ 16c\JJ	16dd\Jk	.
16GG\LL	24dd'\LL	.
.	24cc#'\	.
16G\ 16B\	.	.
.	24dd'\JJ	.
16B\ 16d\	24ee-'\LL	.
.	24een'\	.
16G\ 16B\	.	.
.	24ffn'\JJ	.
16B\ 16d\	16ff#'\LL	.
16G\ 16B\JJ	16gg'\JJ	.
=79	=79	=79
16CC\LL	24a'\LL	.
.	24g#'\	.
16C\ 16E\	.	.
.	24a'\JJ	.
16E\ 16A\	32b-'\LLL	.
.	32bn'\	.
16C\ 16E\	32cc\	.
.	32cc#'\JJJ	.
16E\ 16A\	24dd'\LL	.
.	24dd#'\	.
16C\ 16E\JJ	.	.
.	24ee'\JJ	.
16DD\LL	(8ee\	>
16D\ 16G\	.	.
16G\ 16B\	[4dn/)	.
16D\ 16G\	.	.
16G\ 16B\	.	.
16D\ 16G\JJ	.	.
16DD\LL	16d/LL]	.
16D\ 16A\	(48e/L	.
.	48d/	.
.	48c#/JJJ	.
16A\ 16c\	48d/LLL	.
.	48e/	.
.	48f#/JJJ	.
16D\ 16A\	48g#/LLL	.
.	48a/	.
.	48b/JJJ	.
16A\ 16c\	16ccn'/LL)	.
16D\ 16A\JJ	32r	.
.	32f#/JJk	.
=80	=80	=80
16GG\LL	4.c/ (4.a/	.
16D\	.	.
16F#\	.	.
16D\	.	.
16F#\	.	.
16D\JJ	.	.
8GG\ 8G\	8B/ 8g/L)	.
8r	(8g'/	pp
8r	8g'/J)	.
4r	(8g/L	.
.	8f#/	.
8r	8g/J)	.
=81	=81	=81
*	*^	*
4r	(8g/L	2.r	.
.	8f#/	.	.
*clefG2	*	*	*
8e-/	16g'/L	.	pp
.	16g'/JJ)	.	.
(8e-/L	16r	.	.
.	16g/LL	.	<
8d/	16r	.	.
.	16f#/	.	.
8e-/J)	16r	.	.
.	16g/JJ	.	.
(8e-/L	4r	16r	.
.	.	16g\LL	.
8d/	.	16r	.
.	.	16f#\	.
8e-/J)	16r	16r	.
.	16b-/ 16cc#/	16g\JJ	.
=82	=82	=82	=82
*^	*	*	*
(8en/L	2.A\	[4.b-'/ [4.cc#'/	16r	>
.	.	.	16g\LL	.
8d#/	.	.	16r	.
.	.	.	16f#\	.
8e/J)	.	.	16r	.
.	.	.	16g\JJ	.
(8e/L	.	4b-/_ 4cc#/_	16r	.
.	.	.	16g\LL	.
8d#/	.	.	16r	.
.	.	.	16f#\	.
8e/J)	.	16b-/] 16cc#/LL]	16r	.
.	.	16b-/ 16cc#/JJ	16g\JJ	.
(8e/L	4.A\	16r	16r	.
.	.	16b-/ 16cc#/	16g\	.
8fn/	.	16r	16r	.
.	.	16dd/	16a\	.
8c#/J)	.	16r	16r	.
.	.	16ee/	16a\	.
*v	*v	*	*	*
*clefF4	*	*	*
*	*v	*v	*
=83	=83	=83
[4.D\ (4.c#\	[4.a/ (4.ee/	p
8D\] 8d\)	8a/] 8ff/L)	.
8r	(8f'/	pp
8r	8f'/J)	.
4r	(8f/L	.
.	8e/	.
8r	8f/J)	.
*clefG2	*	*
=84	=84	=84
*	*^	*
4r	(8f/L	2.r	<
.	8e/	.	.
8d-/	16f'/L	.	pp
.	16f'/JJ)	.	.
(8d-/L	16r	.	.
.	16f/LL	.	.
8c/	16r	.	.
.	16e/	.	.
8d-/J)	16r	.	.
.	16f/JJ	.	.
(8d-/L	4r	16r	.
.	.	16f\LL	.
8c/	.	16r	.
.	.	16e\	.
8d-/J)	16r	16r	.
.	16a-/ 16b/	16f\JJ	.
=85	=85	=85	=85
*^	*	*	*
8dn/L	2.G\	4.a-/ 4.b/	16r	>
.	.	.	16f\LL	.
8c#/	.	.	16r	.
.	.	.	16e\	.
8d/J	.	.	16r	.
.	.	.	16f\JJ	.
(8d/L	.	4a-/ 4b/	16r	.
.	.	.	16f\LL	.
8c#/	.	.	16r	.
.	.	.	16e\	.
8d/J)	.	16a/ 16b/LL	16r	.
.	.	16a-/ 16b/JJ	16f\JJ	.
(8d/L	4.G\	16r	16r	.
.	.	16a-/ 16b/	16f\	.
8e/	.	16r	16r	.
.	.	16cc/	16g\	.
8B/J)	.	16r	16r	.
.	.	16dd/	16g\	.
*v	*v	*	*	*
*clefF4	*	*	*
=86	=86	=86	=86
4.c\	(4.ee/	16g\LL	p
.	.	16f#\	.
.	.	16f#\	.
.	.	16g\	.
.	.	16g\	.
.	.	16g#\JJ	.
4.F\	4.dd/	16r	.
.	.	16g#\LL	.
.	.	16g#\	.
.	.	16a\	.
.	.	16b\	.
.	.	16a\JJ	.
4.F#\	4.cc/	16r	.
.	.	16a\LL	.
.	.	16a\	.
.	.	16d\	.
.	.	16a\	.
.	.	16d\JJ	.
=87	=87	=87	=87
*^	*	*	*
8GG/L	[2.GG\	4b/)	16d\LK	.
.	.	.	8g\	.
8G/	.	.	.	.
.	.	.	8g\	.
8G/J	.	8r	.	.
.	.	.	16g\Jk	.
8G/L	.	8r	16g\LK	.
.	.	.	8g\	.
8G/	.	(8a/L	.	.
.	.	.	8g\	.
8G/J	.	8b/J	.	.
.	.	.	[16fn\Jk	.
8G/L	4.GG\]	4cc/	16f\LK]	.
.	.	.	8e\	.
8G/	.	.	.	.
.	.	.	8d\	>
8G/J	.	8f#/	.	.
.	.	.	16c\Jk	.
=88	=88	=88	=88	=88
8GG/	[2.GG\	8a/L	16B\LL	.
.	.	.	16d\	.
8G/L	.	16g/Jk)	16B\J	.
.	.	16r	8g\	.
8G/J	.	8r	.	.
.	.	.	[16g\Jk	.
8G/L	.	(8b/L	16g\LK]	<
.	.	.	8g\	.
8G/	.	8a/	.	.
.	.	.	8g\	.
8G/J	.	8b/J	.	.
.	.	.	[16fn\Jk	.
8G/L	4.GG\]	8dd/L	16f\LK]	.
.	.	.	8e\	.
8G/	.	8cc/	.	.
.	.	.	8d\	.
8G/J	.	8f#/J	.	.
.	.	.	16c\Jk	.
=89	=89	=89	=89	=89
16GG/LL	8r	8g/)	8B\L	.
[16G/JJ	.	.	.	.
4G/]	16r	16r	8fn\	.
.	(16BB\LL	(16dd/LL	.	.
.	16C\	16cc/	16e\L	.
.	16E-\JJ)	16a/JJ)	16c\JJ	.
16GG/LL	8D\	8g/	8B\L	.
[16G/JJ	.	.	.	.
4G/]	16r	16r	8fn\	.
.	16BB\LL	(16dd/LL	.	.
.	16C\	16cc/	16e\L	.
.	16AA\JJ	16f#/JJ	16c\JJ	.
16GG/LL	8GG\	8g/)	8B\L	.
[16G/JJ	.	.	.	.
4G/]	16r	16r	8fn\	.
.	(16BB\LL	(16dd/LL	.	.
.	16C\	16cc/	16e\L	.
.	16E-\JJ)	16f#/JJ)	16c\JJ	.
*v	*v	*	*	*
*	*v	*v	*
=90	=90	=90
2.GG;/ 2.D;/ 2.G;/	2.B;/ 2.g;/	p
.	gq\LLL	.
.	f#q\	.
.	gq\	.
.	dq\	.
.	eq\	.
.	f#q\	.
.	gq\	.
.	aq\	.
.	gq\	.
.	f#q\	.
.	gq\	.
.	aq\	.
.	bq\	.
.	ccq\	.
.	bq\	.
.	aq\	.
.	bq\	.
.	ccq\	.
.	ddq\	.
.	eeq\	.
.	ddq\	.
.	cc#q\	.
.	ddq\	.
.	eeq\	.
.	ff#q\JJJ	.
4.r	4.r	.
*clefF4	*	*
=91	=91	=91
16C'\ 16E'\LL	2.cc\	p
16E`\ 16G`\	.	.
16G`\ 16c`\	.	.
16E`\ 16G`\	.	.
16C`\ 16E`\	.	.
16E`\ 16G`\JJ	.	.
16C\ 16E\LL	.	.
16E`\ 16G`\	.	.
16G`\ 16c`\	.	.
16E`\ 16G`\	.	.
16C`\ 16E`\	.	.
16E`\ 16G`\JJ	.	.
16C\ 16E\LL	[4ee\	.
16E`\ 16G`\	.	.
16G`\ 16c`\	.	.
16E`\ 16G`\	.	.
16C`\ 16E`\	16.ee\LL]	.
16E`\ 16G`\JJ	.	.
.	32cc\JJk	.
=92	=92	=92
16C`\ 16E`\LL	[4.g/	.
16E`\ 16G`\	.	.
16G`\ 16c`\	.	.
16E`\ 16G`\	.	.
16C`\ 16E`\	.	.
16E`\ 16G`\JJ	.	.
16C'\ 16E'\LL	4g/]	.
16E`\ 16G`\	.	.
16G`\ 16c`\	.	.
16E`\ 16G`\	.	.
16C`\ 16E`\	(16f#'/LL	.
16E`\ 16G`\JJ	16g'/JJ	.
16C`\ 16E`\LL	16g#'/LL	.
16E`\ 16G`\	16a'/	.
16G`\ 16c`\	16b-'/	.
16E`\ 16G`\	16bn'/	.
16C`\ 16E`\	16cc'/	.
16E`\ 16G`\JJ	16cc#'/JJ)	.
=93	=93	=93
16BB`\ 16F`\LL	2.dd\	.
16F`\ 16G`\	.	.
16G\ 16d\	.	.
16F`\ 16G`\	.	.
16BB\ 16F\	.	.
16F`\ 16G`\JJ	.	.
16BB`\ 16F`\LL	.	.
16F`\ 16G`\	.	.
16G`\ 16d`\	.	.
16F`\ 16G`\	.	.
16BB`\ 16F`\	.	.
16F`\ 16G`\JJ	.	.
.	(cc#q/LLL	.
.	ddq/JJJ	.
16BB`\ 16F`\LL	[4gg\)	.
16F'\ 16G'\	.	.
16G`\ 16d`\	.	.
16F`\ 16G`\	.	.
16BB`\ 16F`\	(32.gg\LLL]	.
.	64ff\L	.
16F\ 16G\JJ	64ee\	.
.	64dd\	.
.	64ccn\	.
.	64b\JJJJ)	.
=94	=94	=94
16BB`\ 16F`\LL	8a/	.
16F\ 16G\	.	.
16G`\ 16d`\	[4g/	.
16F\ 16G\	.	.
16BB\ 16F\	.	.
16F'\ 16G'\JJ	.	.
16BB`\ 16F`\LL	4g/]	.
16F'\ 16G'\	.	.
16G`\ 16d`\	.	.
16F\ 16G\	.	.
16BB`\ 16F`\	(16g'/LL	.
16F`\ 16G`\JJ	16a'/JJ	.
16GG`\ 16F`\LL	16b-'/LL	.
16F`\ 16G`\	16bn'/	.
16G`\ 16B`\	16cc'/	.
16F\ 16G\	16cc#'/	.
16GG\ 16F\	16dd'/	.
16F`\ 16G`\JJ	16dd#'/JJ)	.
=95	=95	=95
16C`\ 16E`\LL	(32ee\LLL	.
.	32ff\	.
16G`\	32ee\	.
.	32dd#\	.
16c\	32ee\	.
.	32cc\	.
16G`\	32b\	.
.	32cc\	.
16E`\	32ccc\	.
.	32bb\	.
16C`\JJ	32ccc\JJJ)	.
.	32r	.
16AA`\LL	(32ff\LLL	.
.	32gg\	.
16A`\	32ff\	.
.	32ee\	.
16c`\	32ff\	.
.	32cc\	.
16A'\	32b\	.
.	32cc\	.
16F`\	32ccc\	.
.	32bb\	.
16C`\JJ	32ccc\JJJ)	.
.	32r	.
16EE`\LL	(32gg\LLL	.
.	32aa\	.
16G'\	32gg\	.
.	32ff\	.
16c`\	32gg\	.
.	32cc\	.
16G\	32b\	.
.	32cc\	.
16E`\	32ccc\	.
.	32bb\	.
16C`\JJ	32ccc\JJJ)	.
.	32r	.
=96	=96	=96
16FF'\LL	16gg#'\LK	<
16F`\ 16A`\	8aa\	.
16A\ 16c\	.	.
16F`\ 16A`\	8aa\	.
16A`\ 16c`\	.	.
16F`\ 16A`\JJ	8aa\	.
16FF`\LL	.	.
16F`\ 16A`\	8aa\	f
16A`\ 16c#`\	.	.
16F`\ 16A`\	8aa\	.
16A`\ 16c#`\	.	.
16F`\ 16A`\JJ	[16aa\Jk	.
16FF`\LL	(16aa\LL]	.
16F`\ 16A`\	16ee\	.
.	ggnq/	.
16A`\ 16d`\	16ff\	.
16F`\ 16A`\	16ee\	.
16A\ 16d\	16ff\	.
16F`\ 16A`\JJ	16dd\JJ)	.
=97	=97	=97
16GG`\LL	(32cc\LLL	p
.	32dd\	.
16G`\ 16c`\	32cc\	.
.	32b\JJJ)	.
16c`\ 16e`\	32r	.
.	32cc\LLL	.
16G`\ 16c`\	32r	.
.	32dd\	.
16c`\ 16e`\	32r	.
.	32ee\	.
16G`\ 16c`\JJ	32r	.
.	32ff\	.
16c`\ 16e`\LL	32r	.
.	32gg\	.
16G`\ 16c`\	32r	.
.	32aa\	.
16c`\ 16e`\	32r	.
.	32bb\	.
16G`\ 16c`\	32r	.
.	32ccc\	.
16c`\ 16e`\	32r	.
.	32ddd\	.
16G`\ 16c`\JJ	32r	.
.	32eee\JJJ	.
16GG`\LL	8fff\	.
16G`\ 16d`\	.	.
16d`\ 16f`\	8r	.
16G`\ 16d`\	.	.
16d`\ 16g`\	8b\	.
16G`\ 16d`\JJ	.	.
=98	=98	=98
8C\ 8c\	8e'/ 8cc'/L	.
8r	(8g/	pp
8r	8f/J	.
4r	8e/L	.
.	8d/	.
8r	8c/J	.
4r	16B/LL	.
.	16c/	.
.	16B/	.
.	16c/	.
8r	16d/	.
.	16c/JJ)	.
=99	=99	=99
*	*^	*
8DD`\L	4r	2.c\	.
8D`\	.	.	.
8A`\J	8r	.	.
8DD`\L	4.f#/	.	.
8D`\	.	.	.
8A`\J	.	.	.
8GG\L	4.fn/	4.B\	.
8D`\	.	.	.
8G`\J	.	.	.
=100	=100	=100	=100
.	.	eq/LLL	.
.	.	fq/JJJ	.
8CC`\L	4r	2.B-\	.
8C`\	.	.	.
8G`\J	8r	.	.
8CC`\L	4.e/	.	.
8C`\	.	.	.
8G`\J	.	.	.
8FF'\L	4.f/	4.A\	.
8C`\	.	.	.
8F`\J	.	.	.
=101	=101	=101	=101
.	.	eq/LLL	.
.	.	fq/JJJ	.
8FF`\L	8a/	8f\L	<
.	.	(g#q/LL	.
.	.	aq/JJ	.
8F`\ 8A`\	8cc/	8a\)	.
.	.	(bnq/LL	.
.	.	ccq/JJ	.
8A`\ 8c`\J	8ff/	8cc\J)	.
.	(ffq/	.	.
8FF'\L	8ff\) 8aa\	2.r	.
8F`\ 8A`\	[4aa'\ [4ccc'\	.	>
8A`\ 8c`\J	.	.	.
8FF`\L	8aa\] 8ccc\L]	.	.
8F`\ 8A`\	16gg\ (16bb\L	.	.
.	16ff\ 16aa\	.	.
8A\ 8d\J	16ee\ 16gg\	.	.
.	16dd\ 16ff\JJ)	.	.
*	*v	*v	*
=102	=102	=102
8GG\L	16cc\ 16ee\LL	p
.	16b\ (16dd#\	.
8G`\ 8c`\	16cc\ 16ee\)	.
.	16dd#\ (16ff#\	.
8c\ 8e\J	16ee\ 16gg\	.
.	16cc\ 16ee\JJ)	.
8GG\L	16r	.
.	16b\ (16dd#\LL	.
8G`\ 8c`\	16cc\ 16ee\)	.
.	16dd#\ (16ff#\	.
8c`\ 8e`\J	16ee\ 16gg\	.
.	16cc\ 16ee\JJ)	.
8GG\L	16r	.
.	16a#\ (16cc#\LL	.
8G`\ 8d`\	16b\ 16ddn\)	.
.	16cc#\ 16ee\	.
8d`\ 8f`\J	16dd\ (16ffn\	.
.	16b\ 16dd\JJ)	.
=103	=103	=103
8CC/ 8C/	8ccn\	.
(8G\L	8r	pp
8F\J	8r	.
8E\L	4r	.
8D\	.	.
8C\J)	8r	.
(16BB/LL	4r	.
16C/	.	.
16BB/	.	.
16C/	.	.
16D/	8r	.
16C/JJ)	.	.
=104	=104	=104
2.C/	8r	.
.	8f#`/L	.
.	8a'/J	.
.	8dd`\L	.
.	8ff#`\	.
.	8aa`\J	.
(BBq/LLL	.	.
Cq/JJJ	.	.
4.BB/)	4.gg\ 4.ddd\	.
=105	=105	=105
2.BB-/	8r	.
.	8e`/L	.
.	8g`/J	.
.	8cc`\L	.
.	8ee\	.
.	8gg`\J	.
(AAq/LL	.	.
BB-q/JJ	.	.
4.AA/)	4.ff\ 4.ccc\	.
=106	=106	=106
*^	*	*
8FF/L	4.FF\	16aa\ 16ccc\LK	<
.	.	8aa\ 8fff\	.
8AA/	.	.	.
.	.	8aa\ 8fff\	.
8C/J	.	.	.
.	.	[16aa\ [16fff\Jk	.
8F/L	[4.F\	16aa\] 16fff\LK]	.
.	.	8aa\ 8fff\	.
8A/	.	.	.
.	.	8aa\ 8fff\	.
8c#/J	.	.	.
.	.	[16aa\ 16fff\Jk	f
8d/L	4.F\]	16aa\] 16fff\LK	.
.	.	8aa\ 8fff\	.
8e/	.	.	.
.	.	8gg\ 8eee\	.
8f/J	.	.	.
.	.	16ff\ 16ddd\Jk	.
*v	*v	*	*
=107	=107	=107
4G\ 4g\	16ee`\ 16ccc`\LL	.
.	16dd#\ (16ff#\	.
.	16ee\ 16gg\)	.
.	16f#\ (16dd#\	.
8r	16g\ 16ee\	.
.	16e\ 16cc\JJ)	.
*	*clefF4	*clefF4
4GG/ 4G/	16r	.
.	16d#\ (16f#\LL	.
.	16e\ 16g\)	.
.	16F#\ (16d#\	.
8r	16G\ 16e\	.
.	16E\ 16c\JJ)	.
4GGG/ 4GG/	16r	.
.	16c#\ (16e\LL	.
.	16dn\ 16fn\)	.
.	16E\ (16c#\	.
8r	16Fn\ 16d\	.
.	16D\ 16B\JJ)	.
=108	=108	=108
2.CC/	16E\ (16c\LL	p
.	16G\	.
.	16E\	.
.	16G\	.
.	16E\	.
.	16G\JJ	.
.	16E\LL	.
.	16G\	.
.	16E\	.
.	16G\	.
.	16E\	.
.	16G\JJ	.
(BBBq/LLL	.	.
CCq/JJJ	.	.
[4EE/)	16E\LL	.
.	16G\	.
.	16E\	.
.	16G\	.
16.EE/LL]	16E\	.
.	16G\JJ)	.
32CC/JJk	.	.
=109	=109	=109
*	*^	*
[2.GGG/	(8B/L	16F\LL	.
.	.	16G\	.
.	8d/	16F\	.
.	.	16G\	.
.	[8f/J	16F\	.
.	.	16G\JJ	.
.	8f/L]	16F\LL	.
.	.	16G\	.
.	8e/	16F\	.
.	.	16G\	.
.	8d/J	16F\	.
.	.	16G\JJ	.
4.GGG/]	8c/L	16F\LL	.
.	.	16G\	.
.	8B/	16F\	.
.	.	16G\	.
.	8d/J)	16F\	.
.	.	16G\JJ	.
*	*v	*v	*
=110	=110	=110
4.CC/	16E\ (16c\LL	.
.	16G\	.
.	16E\	.
.	16G\	.
.	16E\	.
.	16G\JJ	.
4.EE/	16E\LL	.
.	16G\	.
.	16E\	.
.	16G\	.
.	16E\	.
.	16G\JJ	.
(DDq/LLL	.	.
EEq/JJJ	.	.
[4GG/)	16E\LL	.
.	16G\	.
.	16E\	.
.	16G\	.
(32GG/LLL]	16E\	.
64FF/L	.	.
64EE/	.	.
64DD/	16G\JJ)	.
64CC/	.	.
64BBB/	.	.
64AAA/JJJJ)	.	.
=111	=111	=111
*	*^	*
(8AAA-/	(8B/L	16F\LL	.
.	.	16G\	.
[4GGG/)	8d/	16F\	.
.	.	16G\	.
.	[8f/J	16F\	.
.	.	16G\JJ	.
2.GGG/]	8f/L]	16F\LL	.
.	.	16G\	.
.	8e/	16F\	.
.	.	16G\	.
.	8d/J	16F\	.
.	.	16G\JJ	.
.	8c/L	16F\LL	.
.	.	16G\	.
.	8B/	16F\	.
.	.	16G\	.
.	8d/J)	16F\	.
.	.	16G\JJ	.
=112	=112	=112	=112
8CC/L	8c/	16E\LL	.
.	.	16G\	.
[8GG/J	4r	16E\	.
.	.	16G\	.
(32GG/LLL]	.	16E\	.
64FF/L	.	.	.
64EE/	.	.	.
64DD/	.	16G\JJ	.
64CC/	.	.	.
64BBB/	.	.	.
64AAA/JJJJ)	.	.	.
8AAA-/	8B/	16F\LL	.
.	.	16G\	.
[4GGG/	[4f/	16F\	.
.	.	16G\	.
.	.	16F\	.
.	.	16G\JJ	.
4.GGG/]	8f/L]	16F\LL	.
.	.	16G\	.
.	8d/	16F\	.
.	.	16G\	.
.	8B/J	16F\	.
.	.	16G\JJ	.
=113	=113	=113	=113
8CC/L	(8c/	16E\LL	.
.	.	16G\	.
[8GG/J	4r	16E\	.
.	.	16G\	.
(32GG/LLL]	.	16E\	.
64FF/L	.	.	.
64EE/	.	.	.
64DD/	.	16G\JJ	.
64CC/	.	.	.
64BBB/	.	.	.
64AAA/JJJJ)	.	.	.
8AAA-/	8B/	16F\LL	.
.	.	16G\	.
[4GGG/	[4f/	16F\	.
.	.	16G\	.
.	.	16F\	.
.	.	16G\JJ	.
4.GGG/]	8f/L]	16F\LL	.
.	.	16G\	.
.	16e/L	16F\	.
.	16d/	16G\	.
.	16c/	16F\	.
.	16B/JJ)	16G\JJ	.
=114	=114	=114	=114
*^	*	*	*
8r	[2.CC\	[2.d/	16r	.
.	.	.	8F\L	.
(8GG/L	.	.	.	.
.	.	.	8F\	.
8AA-/J	.	.	.	.
.	.	.	[16F\Jk	>
8AAn/L	.	.	16F\LK]	.
.	.	.	8F\	.
8GG#/	.	.	.	.
.	.	.	8F\	.
8AA/J	.	.	.	.
.	.	.	[16F\Jk	.
8BB-/L	4.CC\]	8d/L]	16F\LK]	.
.	.	.	8F\	.
8AA/	.	8d/	.	.
.	.	.	8F\	.
8BB-/J	.	8d/J	.	.
.	.	.	[16F\Jk	.
=115	=115	=115	=115	=115
8BBn/L	[4.CC\	4.d/	16F\LK]	p
.	.	.	8F\	.
8GGn/	.	.	.	.
.	.	.	8F\	.
16AA/L	.	.	.	.
16BB/JJ	.	.	16F\Jk	.
4C/)	4CC\]	4c/	4E\	.
8r	8r	8r	8r	.
4r	4.r	4.r	4r	.
8r	.	.	8r	.
*	*	*v	*v	*
*	*	*clefG2	*clefG2
=116	=116	=116	=116
*	*	*^	*
(8BB/L	[4.CC\	4.d/ (4.f/	16r	pp
.	.	.	8G\L	.
8GG/J	.	.	.	.
.	.	.	8G\	.
16AA/LL	.	.	.	.
16BB/JJ	.	.	[16G\Jk	.
4C/)	4CC\]	4c/ 4e/)	4G\]	.
8r	8r	8r	8r	.
4r	4.r	4r	4.r	.
8r	.	8r	.	.
=117	=117	=117	=117	=117
8BB/L	[2.CC\	4.f/ (4.a/	16r	.
.	.	.	8G\L	.
8GG/J	.	.	.	.
.	.	.	8G\	.
16AA/LL	.	.	.	.
16BB/JJ	.	.	[16G\Jk	.
8C/L	.	4.e/ 4.g/	16G\LK]	.
.	.	.	8G\	.
8GG/J	.	.	.	.
.	.	.	8G\	.
16BB/LL	.	.	.	.
16C/JJ	.	.	[16G\Jk	.
8D/L	4.CC\]	4.B/ 4.f/)	16G\]	.
.	.	.	8G\	.
8GG/J	.	.	.	.
.	.	.	8G\	.
16C#/LL	.	.	.	.
16D/JJ	.	.	16G\	.
*	*	*v	*v	*
=118	=118	=118	=118
(4.D/	[4.CC\	[4.G/ 4.B/ (4.f/	.
4C/)	4CC\]	16G/] 16c/ 16e/LL)	p
.	.	(16B/	.
.	.	16c/)	.
.	.	(16d#/	.
8r	8r	16e/)	.
.	.	(16f#/JJ	.
4r	4.r	16g\LL)	.
.	.	(16b\	.
.	.	16cc\)	.
.	.	(16dd#\	.
8r	.	16ee\)	.
.	.	16gg'\JJ	.
*v	*v	*	*
*clefG2	*	*
=119	=119	=119
4.g/ (4.dd/	4.ff\ (4.bb\	pp
4c/ 4cc/)	4ee\ 4ccc\)	.
8r	8r	.
4r	4r	.
8r	8r	.
==	==	==
*-	*-	*-
!!!ENC: Craig Stuart Sapp
!!!END: 2008/11/10/
